X:409
T:Three Sheep Skins. (p)1698.PLFD.409
M:4/4
L:1/4
Q:1/2=120
S:Playford, Dancing Master,10th Ed,1698
O:England
H:1698.
Z:Chris Partington.
K:G
"_Up to 16th Ed"G2B>c|d2B2|c2A2|d2A2:|
|:BGGB|AGGB|AGFEF2D2:|
K:D
|:"^17th Ed.onwards"d>efg|a2f2|g>a g/f/g/e/|a2e2:|
|:fddf|e/f/e/d/ c/d/e/f/|d/e/d/c/ B/c/d/e/|c2A2:|
